!!!COM:	Bach, Johann Sebastian
!!!CDT:	1685/02/21/-1750/07/28/
!!!OTL@@DE:	Valet will ich dir geben
!!!SCT:	BWV 415
!!!PC#:	24
!!!AGN:	chorale
**kern	**kern	**kern	**kern
*ICvox	*ICvox	*ICvox	*ICvox
*Ibass	*Itenor	*Ialto	*Isoprn
*I"Bass	*I"Tenor	*I"Alto	*I"Soprano
*>[A,A,B]	*>[A,A,B]	*>[A,A,B]	*>[A,A,B]
*>norep[A,B]	*>norep[A,B]	*>norep[A,B]	*>norep[A,B]
*>A	*>A	*>A	*>A
*	*oclefC4	*oclefC3	*oclefC1
*clefF4	*clefGv2	*clefG2	*clefG2
*k[f#c#]	*k[f#c#]	*k[f#c#]	*k[f#c#]
*D:	*D:	*D:	*D:
*M4/4	*M4/4	*M4/4	*M4/4
*met(c)	*met(c)	*met(c)	*met(c)
*MM100	*MM100	*MM100	*MM100
8DL	8F#L	4A	4d
8C#J	8EJ	.	.
=1	=1	=1	=1
8DL	8F#L	4d	4a
8E	8G	.	.
8F#	8A	4d	4a
8DJ	8F#J	.	.
8GL	4G	4d	4b
8F#J	.	.	.
4E	8GL	[4g	4cc#
.	8AJ	.	.
=2	=2	=2	=2
8BBL	4B	4g]	2dd
8C#J	.	.	.
4D	8AL	8f#L	.
.	8GJ	8eJ	.
4DD;	4A;	4f#;	4dd;
4d	4a	8aL	4ff#
.	.	8bJ	.
=3	=3	=3	=3
4A#	4g	4cc#	4ee
8BL	4f#	4b	4dd
8AJ	.	.	.
4G#	4f	4b	4dd
4A	4e	4a	4cc#
=4	=4	=4	=4
2.D;	2.f#X;	2.a;	2.dd;
=:|!	=:|!	=:|!	=:|!
*>B	*>B	*>B	*>B
4D	8f#L	4a	8ddL
.	8gJ	.	8eeJ
=5	=5	=5	=5
8dL	4a	4dd	4ff#
8c#	.	.	.
8B	4d	8ddL	4ff#
8AJ	.	8cc#J	.
8G#L	8eL	8bL	4.ee
8E	8d	8g#J	.
8F#	8c#	8aL	.
8G#J	8BJ	8bJ	8dd
=6	=6	=6	=6
8AL	4A	8eL	8cc#L
8G#J	.	8f#J	8bJ
8F#L	4G#	4g#	4cc#
8E#J	.	.	.
4F#;	4c#;	4f#;	4a;
4F#	8f#L	[4a	4cc#
.	8eJ	.	.
=7	=7	=7	=7
8BL	4d	8aL]	4dd
8BBJ	.	8g#J	.
8C#L	4e	[4a	4cc#
8DJ	.	.	.
8EL	8eL	4a]	4b
8DJ	8f#J	.	.
8EL	8eL	4g#	4b
8EEJ	8dJ	.	.
=8	=8	=8	=8
2.AA;	2.c#;	2.e;	2.a;
4C#	4A	4e	4a
=9	=9	=9	=9
8DL	4A	4d	8f#L
8EJ	.	.	8gJ
8F#L	8dL	4d	4a
8DJ	8cJ	.	.
4G	8BL	8dL	4b
.	8c#J	8eJ	.
8F#L	8dL	4f#	4a
8EJ	8cJ	.	.
=10	=10	=10	=10
4D#	2B	4f#	4a
4E	.	4e	8gL
.	.	.	8f#J
4BB;	4B;	4d#;	4f#;
4FF#	4c	4d	4a
=11	=11	=11	=11
8GGL	4B	4d	4g
8AA	.	.	.
8BB	4B	[4d	4f#
8AAJ	.	.	.
8GGL	4B	4d]	4e
8EEJ	.	.	.
4AA	8AL	4c#	4e
.	8GJ	.	.
=12	=12	=12	=12
2.DD;	2.F#;	2.A;	2.d;
==	==	==	==
*-	*-	*-	*-
!!!YOR1: 371 vierstimmige Choralges&auml;nge von Johann Sebastian Bach, 
!!!YOR2: 4th ed. by Alfred D&ouml;rffel (Leipzig: Breitkopf und H&auml;rtel, 
!!!YOR2: c.1875). 178 pp. Plate "V.A.10".  reprint: J.S. Bach, 371 Four-Part 
!!!YOR4: Chorales (New York: Associated Music Publishers, Inc., c.1940).
!!!SMS: B&H, 4th ed, Alfred D&ouml;rffel, c.1875, plate V.A.10
!!!EED:  Craig Stuart Sapp
!!!EEV:  2009/05/22
